X:1
T:Siboney
T:Siboney
T:Ruben Gonzalez
C:Ruben Gonzalez
%%score { 1 | 2 } 3 4
L:1/8
Q:1/4=110
M:4/4
K:Eb
V:1 treble nm="Piano" snm="Pno."
V:2 bass 
V:3 bass transpose=-12 nm="Bajo acústico" snm="Bajo"
V:4 perc stafflines=1 nm="Bongós" snm="Bon."
K:none
I:percmap D A 61 normal
I:percmap F c 60 normal
V:1
"^ =" [cc']2 [dd']2 | (.[ee'].[dd']/.[cc'].[Bb]/.[Aa] .[Gg].[Dd]/.[Ff].[Ee]/.[Dd] | %2
 .[Cc].[Dd]/.[Cc].[B,B]/.[A,A] .[G,G].D/.F.E/.D) | C2 z2 z4 | z4 C2 E2 |{/_G} =G4 [ceb]4 | %6
 !arpeggio![ce=a]4 !>![A_a]2 (3[Aa][Bb][Aa] | .[Gg] z/ [Ee]/ z2 !>![Aa]2 (3[Aa][Bb][Aa] | %8
 .[Gg] z/ [Ee]/ z2 .[Ff]2 [DFd]2 | z2 [cec']4 !arpeggio![ceb]2- | %10
 [ceb]2 !arpeggio![ceg]3 z [Cc][Ee] |{/_G} =G8 | z4{/B_c} [C=c]3 A/B/ | %13
 G z/ E/ z2 !>![cc']2 (3ABA | .G>E z2 F2 D2 | E8- | E2 z2{/=EF} !>!G2 [=B,=B]2 | [G=Bd]8- | %18
 [GBd] [FAc]3- [FAc]2 [cc'][dd'] | [cc']2 [dg=b]4 [dg]2 | %20
 z A2 B [cc'][dd'] [cc']/[dd']/[cc']/[dd']/ | [cc']2 [d=b]2- [db]2 [Gg]2 | %22
 [Aa]3 [Ff]/(3[Gg][Aa][Bb](3[Aa][Bb][Aa][Bb]/ | [Gg]3!mp!!>(! c/4B/4A/4G/4 F3 B/4A/4G/4F/4 | %24
 E3 F/E/!p! .D2!>)!!f! [Cc][Ee] |{/_G} =G2 E =B,3 E2 | B,2 z2 .[Aa]2 .[Aa]2 | %27
 .[Gg] z/ [Ee] z/ z .[Aa]2 .[Aa]2 | .[Gg] z/ [Ee] z/ z [Ff]2 [Dd]2 ||[K:C] [Cc]2 z B/c/ _deg^f | %30
[K:C] f z2 z2 [Ee]3/2[Gg]3/2 |!mf! [ee']3 .[Gg] [^G^g]3 [Ee]/[^A^a]/ | [Aa]3 z !>![dd']3 [ee'] | %33
 [dd'] z/ .[cc'] z/ z z2 z G/4A/4B/4c/4 | .[dd'] z/ .[cc'] z/ .[Bb]!mp! [Aa]2 z .[Ee] | %35
 .[Ff].[Gg] z!mf! .[Bb]2 z{/B} de | f/g/f/e/ d/e/d/c/ B/c/B/A/ G/A/G/^F/ | %37
 .F z z2 _D/=D/E/F/ G/A/B/c/ | d z!mf!!>(! d'/a/f/d/ _d'3 d'/4a/4f/4d/4 |!p! c4!>)! [ac']3 [bd'] | %40
 .[ac']2!mf!!>(! [gb]4- (3[gb].[fa].[gb] | [fa] z/ [eg] z/ .[fa] [eg] [_e_g]2 [df] | %42
 [ce]3!>)! [cc']/[Bb]/ [cc']3 [Gg]/[_G_g]/ | [Gg]3 [Ee]/[_E_e]/ [=E=e]3 [Gg] | %44
 !>![ee']3 .[Gg] [^G^g]3!mf!!>(! [Bb] | (3[_B_b][Aa]-[Aa]-!p! [Aa]2!>)!!f! [ff']3 [ee'] | %46
 [dd']2 z .[cc'] z2 z G/4A/4B/4c/4 | [dd'] z/ .[cc'] z/ .[Bb]!mp! [Aa]2 z [Ee] | %48
 .[Ff].[Gg] z!mf! .[Bb]2 z{/B} de | f/g/f/e/ d/e/d/c/ B/c/B/A/ G/A/G/^F/ | %50
 .F z z F/4E/4_E/4D/4 _D/=D/=E/F/ G/A/B/c/ | d z!mf!!>(! d'/a/f/d/ _d'3 d'/4a/4f/4d/4 | %52
!p! c4!>)! [ac']2 [bd']2 |!mp!!<(! !arpeggio![fac']3 !arpeggio![dg-b-]3 (3[gb][fa][gb] | %54
!f!!>(! [fa]>!<)![eg]- (3[eg][fa][eg] [_e_g]2 [df]2 |!mp! !arpeggio![Gce]4!>)! z z z2 || %56
[K:Eb] z2 z2!f! [Aa]2 [Aa]2 | .[Gg] z/ [Ee] z/ z [Aa]2 [Aa]2 | .[Gg] z/ [Ee] z/ z [Ff]2 [Dd]2 | %59
 .[Ee]2 z2 z4 | z2 z2!f! [cc']2 [dd']2 | %61
 (.[ee'].[dd']/.[cc'].[Bb]/.[Aa] .[Gg].[Dd]/.[Ff].[Ee]/.[Dd] | %62
 .[Cc].[Dd]/.[Cc].[B,B]/.[A,A] .[G,G].D/.F.E/.D) | !>!C8 | !>![degd']8 |] %65
V:2
 C2 D2 | (.E.D/.C.B,/.A, .G,.D,/.F,.E,/.D, | .C,.D,/.C,.B,,/.A,, .G,,.D,,/.F,,.E,,/.D,,) | %3
 C,,2!p! [E,G,C]/ z/ z z2!p! [E,G,C]/ z/ z | z4!mf! C,2 E,2 | G,4 B,4 | =A,4 !>![FAc]2 z2 | %7
 z4 !>![FAc]2 z2 | z4 .[A,C]2 A,2 | C,,2 C4 B,2- | B,2 G,3 z C,E, | G,8 | z8 | z4 C2 z2 | z4 z4 | %15
 z4 z4 | z4 z2 =B,2 | [G,=B,D]8- | [G,B,D] A,3- A,2 [FA]2- | [FA]2 G4 G2 | %20
 z [CF]2 [CF] [FA][FA] [FA]/[FA]/[FA]/[FA]/ | [FA]2 G2- G2 z2 | z8 | z8 | z4 z2 C,E, | %25
 G,2 z z z2 z2 | z4 .[Fc]2 .[CFc]2 | z2 z z .[Fc]2 .[CFc]2 | z8 ||[K:C] z2 z B,,/C,/ _D,E,G,^F, | %30
[K:C] F, z2 z2 E,3/2G,3/2 | [C,,C,]3 G, ^G,3 E,/^A,/ | A,3 z D2 z z | [C,C]3 z z2 z z | %34
 [E,G,B,]4 [_E,_G,C]4 | .[G,D]2 z .[G,D]2 z{/B,,} D,E, | %36
 F,/G,/F,/E,/ D,/E,/D,/C,/ B,,/C,/B,,/A,,/ G,,/A,,/G,,/^F,,/ | .F,, z z2 z4 | z !>![A,,D,]3 _D,4 | %39
 C,4 [Cc]3 [Dd] | .[Cc]2!>(! [B,B]4- (3[B,B].[A,A].[B,B] | %41
 [A,A]3/2[G,G]3/2.[A,A] [G,G] [_G,_G]2 [F,F] |!p! [C,C]3!>)! C/B,/ C3 G,/_G,/ | %43
 G,3 E,/_E,/ =E,3 z | [C,,C,]3 G, ^G,3!>(! B, | (3_B,A,-A,- A,2!>)! [F,F]3 z | [C,C]3 z z2 z z | %47
 [E,G,B,]4!mp! [_E,_G,C]4 | !>![G,D]2 z .[G,D]2 z{/B,,} D,E, | %49
 F,/G,/F,/E,/ D,/E,/D,/C,/ B,,/C,/B,,/A,,/ G,,/A,,/G,,/^F,,/ | .F,, z z z z2 z z | %51
 z [A,,D,]2 z _D,4 | C,4 [Cc]2 [Dd]2 |!mp! [Cc]3 [B,B]3- (3[B,B][A,A][B,B] | %54
 [A,A]>[G,G]- (3[G,G][A,A][G,G] [_G,_G]2 [F,F]2 | [C,C]4 z z z2 ||[K:Eb] z2 z2 [Fc]2 [CFc]2 | %57
 z2 z z [Fc]2 [CFc]2 | z8 |!>(! z2 EG, =A,EG,G,, |!mp! C,,2!>)! z2!f! C2 D2 | %61
 (.E.D/.C.B,/.A, .G,.D,/.F,.E,/.D, | .C,.D,/.C,.B,,/.A,, .G,,.D,,/.F,,.E,,/.D,,) | !>!C,,8 | %64
 !>![C,,C,]8 |] %65
V:3
 z4 | z8 | z8 | C,3 G, C3 G, | C,3 G, C2 G,2 | C,3 G, C3 G, | C,3 G, F,2 F,2 | C,3 G, F,2 F,2 | %8
 C,3 G, F,2 G,2 | C,3 G, C3 G, | C,3 G, C3 G, | C,3 G, C3 G, | C,3 G, F,2 F,2 | C,3 G, F,2 F,2 | %14
 C,3 G, F,2 G,2 | C,3 G, C3 G, | C,3 G, F,2 =B,2 | D3 D D,2 G,2 | A,3 A, F,2 =B,2 | D3 D D,2 G,2 | %20
 A,3 A, F,2 =B,2 | D3 D D,3 A, | A,4 A,2 D,2 | G,4 F,4 | E,4 D,4 | C,3 G, C3 G, | C,3 G, F,2 F,2 | %27
 C,3 G, F,2 F,2 | C,3 z F,2 G,2 ||[K:C] C,2 z B,,/C,/ _D, E,3 |[K:C] D2 D,2 G,2 G2 | %31
 C,3 G ^G,2 G2 | C2 G2 z C3 | C,3 z D,2 G,2 | B,3/2B,3/2B, C,3 D, | G,3 G,3 z2 | G,2 D, D,3 G2 | %37
 G,2 z2 F,2 F,2 | D,3 A, A,3 A, | D,2 z G,2 F,3 | D,2 x G,2 D2 D,- | D,2 z z G,2 E,2 | %42
 C,3 G, C2 G,2 | C,3 G, C2 G,2 | C,3 G, C2 G,2 | C,4 z4 | C,3 z C2 G,2 | B,3/2B,3/2B, C,3 D, | %48
 G,3 G,3 z2 | G,2 D, D,3 G2 | G,2 z z F,2 F,2 | D,3 A, A,3 A, | D,2 z2 A,2 D,2 | G,2 z D D2 z D, | %54
 D,2 G,2 G,2 G,2 | C,3 G, C2 G,2 ||[K:Eb] C,2 z2 F,4 | C,2 z z F,2 E,2 | C,3 F, D,4 | C,2 z2 z4 | %60
 z4 C2 G,2 | C,2 z2 z4 | z8 | z8 | C, C,6- C, |] %65
V:4
[K:C] z4 | z8 | z8 | D/ z/ z/ F/ F/ z/ F/ z/ D/ z/ D/ z/ F/ z/ D/ z/ | x8 | x8 | x8 | x8 | x8 | %9
 x8 | x8 | x8 | x8 | x8 | x8 | x8 | x8 | x8 | x8 | x8 | x8 | x8 | x8 | x8 | x8 | x8 | x8 | x8 | %28
 x8 || x8 | !>!D2 z2 z4 | F/ z/ D/ z/ D/ z/ D/ z/ F/ z/ D/ z/ D/ z/ D/ z/ | x8 | x8 | x8 | x8 | %36
 x8 | x8 | x8 | x8 | x8 | x8 | x8 | x8 | x8 | x8 | x8 | x8 | x8 | x8 | x8 | x8 | x8 | x8 | x8 | %55
 x8 || x8 | x8 | x8 | x8 | !>!F2 z2 z4 | z8 | z8 | z8 | z8 |] %65

